data/tilesets/flags/papua_newguinea.svg

<?xml version="1.0" encoding="UTF-8" standalone="no"?>
<!-- Created with Sodipodi ("http://www.sodipodi.com/") -->
<svg
   xmlns:dc="http://purl.org/dc/elements/1.1/"
   xmlns:cc="http://web.resource.org/cc/"
   xmlns:rdf="http://www.w3.org/1999/02/22-rdf-syntax-ns#"
   xmlns:svg="http://www.w3.org/2000/svg"
   xmlns="http://www.w3.org/2000/svg"
   xmlns:sodipodi="http://inkscape.sourceforge.net/DTD/sodipodi-0.dtd"
   xmlns:inkscape="http://www.inkscape.org/namespaces/inkscape"
   height="351.49000pt"
   id="svg548"
   sodipodi:docbase="/Users/daniel/Desktop/freeciv"
   sodipodi:docname="papua_newguinea.svg"
   sodipodi:version="0.32"
   width="527.24pt"
   inkscape:version="0.43">
  <metadata
     id="metadata3">
    <rdf:RDF>
      <cc:Work
         rdf:about="">
        <dc:title>Papaua New Guinea</dc:title>
        <dc:description />
        <dc:subject>
          <rdf:Bag>
            <rdf:li>melanesia</rdf:li>
            <rdf:li />
            <rdf:li>flags</rdf:li>
            <rdf:li>oceania</rdf:li>
            <rdf:li>signs_and_symbols</rdf:li>
            <rdf:li>sign</rdf:li>
          </rdf:Bag>
        </dc:subject>
        <dc:publisher>
          <cc:Agent
             rdf:about="http://www.openclipart.org">
            <dc:title>Tobias Jakobs</dc:title>
          </cc:Agent>
        </dc:publisher>
        <dc:creator>
          <cc:Agent>
            <dc:title>Tobias Jakobs</dc:title>
          </cc:Agent>
        </dc:creator>
        <dc:rights>
          <cc:Agent>
            <dc:title>Tobias Jakobs</dc:title>
          </cc:Agent>
        </dc:rights>
        <dc:date />
        <dc:format>image/svg+xml</dc:format>
        <dc:type
           rdf:resource="http://purl.org/dc/dcmitype/StillImage" />
        <cc:license
           rdf:resource="http://web.resource.org/cc/PublicDomain" />
        <dc:language>en</dc:language>
      </cc:Work>
      <cc:License
         rdf:about="http://web.resource.org/cc/PublicDomain">
        <cc:permits
           rdf:resource="http://web.resource.org/cc/Reproduction" />
        <cc:permits
           rdf:resource="http://web.resource.org/cc/Distribution" />
        <cc:permits
           rdf:resource="http://web.resource.org/cc/DerivativeWorks" />
      </cc:License>
    </rdf:RDF>
  </metadata>
  <defs
     id="defs550" />
  <sodipodi:namedview
     id="base"
     inkscape:zoom="0.85350937"
     inkscape:cx="329.52499"
     inkscape:cy="219.68124"
     inkscape:window-width="737"
     inkscape:window-height="536"
     inkscape:window-x="0"
     inkscape:window-y="22"
     inkscape:current-layer="svg548" />
  <rect
     style="fill:#ff0000;fill-opacity:1.0000000;fill-rule:nonzero;stroke:none;stroke-width:8.3829098;stroke-linecap:butt;stroke-linejoin:round;stroke-miterlimit:4.0000000;stroke-dasharray:none;stroke-opacity:1.0000000"
     id="rect2055"
     width="659.04999"
     height="439.36249"
     x="0.0000000"
     y="0.0000000" />
  <path
     style="font-size:12.000000px;fill-rule:evenodd;stroke:none;stroke-width:0.99997597pt"
     sodipodi:nodetypes="cccc"
     id="path572"
     d="M 0.51426300,-9.6827742e-05 L 1.6262500e-10,439.36249 L 659.05000,439.36249 L 0.51426300,-9.6827742e-05 z " />
  <path
     style="font-size:12.000000px;fill:#ffcc00;fill-opacity:1.0000000;stroke:#ffcc00;stroke-width:2.2859709;stroke-opacity:1.0000000"
     sodipodi:nodetypes="ccccccccccccccccccccccccccccccccccccccccccccccccccccccccccccccc"
     id="selection_to_path"
     d="M 406.90284,119.44242 C 406.90284,119.44242 398.12471,118.98522 398.12471,118.98522 C 395.42726,112.63023 387.80812,110.24527 383.12188,112.91986 C 378.86998,113.28561 356.61148,112.58451 356.61148,112.58451 C 356.61148,112.58451 372.88759,119.71674 372.88759,119.71674 C 376.91090,130.59796 390.90104,133.15824 390.90104,133.15824 C 389.65976,153.21718 370.59933,130.56961 354.59754,141.99947 C 343.16768,148.85738 343.03281,157.04756 336.85611,170.27876 C 334.94733,173.95734 326.89385,183.44961 326.89385,183.44961 C 326.89385,183.44961 340.33536,182.30662 340.33536,182.30662 C 340.33536,182.30662 336.03774,188.02155 336.03774,188.02155 C 336.03774,188.02155 352.03953,185.73558 352.03953,185.73558 C 352.03953,185.73558 349.89072,187.52961 348.61058,188.89022 C 350.98113,189.35381 366.89835,185.16408 366.89835,185.16408 C 366.89835,185.16408 365.75536,190.30752 365.75536,190.30752 C 373.91628,187.03858 384.04313,183.72392 384.04313,183.72392 C 384.04313,183.72392 387.63210,186.71855 390.90104,188.02155 C 390.90104,188.02155 393.18701,178.87766 393.18701,178.87766 C 393.18701,178.87766 402.33090,181.16364 402.33090,181.16364 C 402.33090,181.16364 404.61687,172.01975 404.61687,172.01975 C 418.33269,190.30752 422.90463,208.59529 448.05032,213.16723 C 448.05032,213.16723 445.76434,204.02335 445.76434,204.02335 C 452.75942,207.01797 465.74373,213.37297 465.74373,213.37297 C 465.74373,213.37297 467.70967,209.18964 467.70967,209.18964 C 478.61375,217.00766 487.66619,216.87050 493.76974,217.73917 C 493.76974,217.73917 489.22065,206.35504 489.19779,206.30932 C 489.49497,206.42362 493.74688,208.61815 493.76974,208.59529 C 493.76974,208.59529 486.91182,190.30752 486.91182,190.30752 C 486.91182,190.30752 493.76974,192.59349 493.76974,192.59349 C 493.76974,192.59349 484.62585,178.87766 484.62585,178.87766 C 484.62585,178.87766 488.05481,176.59169 488.05481,176.59169 C 488.05481,176.59169 486.91182,169.73378 486.91182,169.73378 C 500.62765,174.30572 518.91542,181.16364 521.20139,197.16543 C 523.48736,222.31111 496.05571,229.16903 477.76794,226.88306 C 491.48377,238.31291 516.62945,233.74097 528.05930,222.31111 C 532.63124,217.73917 534.91721,210.88126 537.20318,204.02335 C 539.48916,210.88126 544.06110,220.02514 544.06110,229.16903 C 541.77513,249.74277 514.34348,256.60068 496.05571,258.88665 C 516.62945,270.31650 553.20498,256.60068 555.49095,226.88306 C 555.49095,201.73737 539.48916,190.30752 532.63124,178.87766 C 531.60256,174.71720 530.34527,166.57914 530.34527,166.57914 C 531.23223,166.84066 537.20318,169.75664 537.20318,169.75664 C 537.20318,169.75664 533.15702,162.19008 532.63124,160.58990 C 532.63124,160.58990 525.49901,141.15914 522.91587,136.86152 C 523.34106,136.62103 528.05930,137.66161 528.05930,137.66161 C 528.05930,137.66161 509.33720,114.18469 509.33720,114.18469 C 509.33720,114.18469 513.85428,113.77413 514.64065,113.63605 C 514.64065,113.63605 492.87821,96.468410 486.91182,94.296738 C 486.91182,94.296738 493.76974,92.010767 493.76974,92.010767 C 480.05391,85.152854 464.05211,89.724796 450.33629,98.868680 C 450.33629,98.868680 452.62226,92.010767 452.62226,92.010767 C 452.62226,92.010767 448.43893,92.399382 448.43893,92.399382 C 448.43893,92.399382 448.43893,84.558501 448.43893,84.558501 C 448.43893,84.558501 452.62226,78.294941 452.62226,78.294941 C 452.62226,78.294941 445.76434,76.008970 445.76434,76.008970 C 445.76434,76.008970 450.33629,64.579115 450.33629,64.579115 C 450.33629,64.579115 443.47837,66.865086 443.47837,66.865086 C 443.47837,66.865086 445.76434,55.435231 445.76434,55.435231 C 445.76434,55.435231 440.64377,57.812641 437.53485,57.469745 C 437.64915,57.721202 441.16954,49.651724 441.16954,49.651724 C 438.98873,46.245627 441.19240,39.433434 441.19240,39.433434 C 425.19061,41.719405 422.90463,44.005376 413.76075,57.721202 C 400.04492,82.866883 404.61687,94.296738 406.90284,119.44242 z " />
  <path
     style="font-size:12.000000px;fill:#ff0000;fill-opacity:1.0000000;fill-rule:evenodd;stroke:#ff0000;stroke-width:2.2859711pt;stroke-linecap:butt;stroke-linejoin:miter;stroke-opacity:1.0000000"
     sodipodi:nodetypes="ccc"
     id="path566"
     d="M 493.27139,157.01921 C 494.46239,158.98377 507.43756,165.23430 517.20094,170.77070 C 514.58122,160.23397 495.53222,157.91211 493.27139,157.01921 z " />
  <polygon
     d="M 78.293953,180.39726 L 70.969916,175.05484 L 63.39719,180.4283 L 66.214885,171.81183 L 58.764318,166.27023 L 67.829786,166.28738 L 70.797808,157.48902 L 73.582881,166.11609 L 82.867786,166.22001 L 75.523588,171.53468 L 78.293953,180.39726 z "
     inkscape:randomized="0"
     inkscape:rounded="0"
     inkscape:flatsided="false"
     style="font-size:12px;fill:#ffffff;fill-opacity:1;fill-rule:evenodd;stroke-width:1pt"
     sodipodi:type="star"
     sodipodi:sides="5"
     sodipodi:r2="4.8960431"
     sodipodi:r1="12.67197"
     sodipodi:cy="170.16096"
     sodipodi:cx="70.824211"
     sodipodi:arg2="1.5410323"
     sodipodi:arg1="0.94039422"
     points="78.294,180.397 71.9338,176.34 63.3972,180.428 65.2905,173.126 58.7643,166.27 66.2946,165.814 70.7978,157.489 73.5585,164.51 82.8678,166.22 77.0437,171.015 78.294,180.397 "
     id="polygon567"
     transform="matrix(2.285971,0,0,2.285971,0,-20.00002)" />
  <polygon
     d="M 94.616715,144.7085 L 91.666202,142.65384 L 88.830293,144.92648 L 89.872628,141.48546 L 86.834871,139.49063 L 90.429582,139.41862 L 91.388055,135.9131 L 92.567373,139.30962 L 96.197498,139.13792 L 93.331646,141.3091 L 94.616715,144.7085 z "
     inkscape:randomized="0"
     inkscape:rounded="0"
     inkscape:flatsided="false"
     style="font-size:12px;fill:#ffffff;fill-opacity:1;fill-rule:evenodd;stroke-width:1pt"
     sodipodi:type="star"
     sodipodi:sides="5"
     sodipodi:r2="1.8208756"
     sodipodi:r1="4.9257159"
     sodipodi:cy="140.83533"
     sodipodi:cx="91.573486"
     sodipodi:arg2="1.5198562"
     sodipodi:arg1="0.90482324"
     points="94.6167,144.708 91.6662,143.296 88.8303,144.926 89.2615,141.684 86.8349,139.491 90.0519,138.899 91.3881,135.913 92.9451,138.79 96.1975,139.138 93.9428,141.508 94.6167,144.708 "
     id="polygon568"
     transform="matrix(2.285971,0,0,2.285971,0,-20.00002)" />
  <polygon
     d="M 109.00288,124.2359 L 102.52842,119.79491 L 96.258286,124.62455 L 98.481199,117.09463 L 91.950363,112.62381 L 99.79866,112.41106 L 102.03252,104.81831 L 104.66012,112.21673 L 112.57155,111.99497 L 106.3472,116.78021 L 109.00288,124.2359 z "
     inkscape:randomized="0"
     inkscape:rounded="0"
     inkscape:flatsided="false"
     style="font-size:12px;fill:#ffffff;fill-opacity:1;fill-rule:evenodd;stroke-width:1pt"
     sodipodi:type="star"
     sodipodi:sides="5"
     sodipodi:r2="4.1387064"
     sodipodi:r1="10.846242"
     sodipodi:cy="115.65951"
     sodipodi:cx="102.36312"
     sodipodi:arg2="1.5308452"
     sodipodi:arg1="0.91199213"
     points="109.003,124.236 102.528,121.08 96.2583,124.625 97.2589,117.492 91.9504,112.624 99.0432,111.371 102.033,104.818 105.416,111.177 112.572,111.995 107.57,117.177 109.003,124.236 "
     id="polygon569"
     transform="matrix(2.285971,0,0,2.285971,0,-20.00002)" />
  <polygon
     d="M 79.400574,95.740189 L 71.779296,90.31468 L 64.312666,96.034347 L 67.117527,87.109507 L 59.370485,81.775794 L 68.725261,81.685448 L 71.403956,72.669365 L 74.380665,81.538368 L 83.783232,81.299836 L 76.268163,86.871527 L 79.400574,95.740189 z "
     inkscape:randomized="0"
     inkscape:rounded="0"
     inkscape:flatsided="false"
     style="font-size:12px;fill:#ffffff;fill-opacity:1;fill-rule:evenodd;stroke-width:1pt"
     sodipodi:type="star"
     sodipodi:sides="5"
     sodipodi:r2="4.8124006"
     sodipodi:r1="12.83698"
     sodipodi:cy="85.503906"
     sodipodi:cx="71.654182"
     sodipodi:arg2="1.5447952"
     sodipodi:arg1="0.92298394"
     points="79.4006,95.7402 71.7793,91.9212 64.3127,96.0343 65.5897,87.6059 59.3705,81.7758 67.781,80.3858 71.404,72.6694 75.3249,80.2387 83.7832,81.2998 77.796,87.368 79.4006,95.7402 "
     id="polygon570"
     transform="matrix(2.285971,0,0,2.285971,0,-20.00002)" />
  <polygon
     d="M 50.904899,125.3425 L 43.218585,119.494 L 35.553848,125.44548 L 38.740897,116.32808 L 30.712169,110.87759 L 40.368187,111.09122 L 43.070897,101.77115 L 45.851596,111.02059 L 55.550691,110.71096 L 47.613239,116.21379 L 50.904899,125.3425 z "
     inkscape:randomized="0"
     inkscape:rounded="0"
     inkscape:flatsided="false"
     transform="matrix(2.285971,0,0,2.285971,2.529713,-20.00005)"
     style="font-size:12px;fill:#ffffff;fill-opacity:1;fill-rule:evenodd;stroke-width:1pt"
     sodipodi:type="star"
     sodipodi:sides="5"
     sodipodi:r2="4.6648529"
     sodipodi:r1="13.058678"
     sodipodi:cy="114.82954"
     sodipodi:cx="43.158501"
     sodipodi:arg2="1.5579158"
     sodipodi:arg1="0.93576926"
     points="50.9049,125.343 43.2186,120.779 35.5538,125.445 37.5186,116.725 30.7122,110.878 39.6128,110.051 43.0709,101.771 46.607,109.981 55.5507,110.711 48.8355,116.611 50.9049,125.343 "
     id="polygon571" />
</svg>

<?xml version="1.0" encoding="UTF-8" standalone="no"?>
<svg
   xmlns:dc="http://purl.org/dc/elements/1.1/"
   xmlns:cc="http://creativecommons.org/ns#"
   xmlns:rdf="http://www.w3.org/1999/02/22-rdf-syntax-ns#"
   xmlns:svg="http://www.w3.org/2000/svg"
   xmlns="http://www.w3.org/2000/svg"
   xmlns:sodipodi="http://sodipodi.sourceforge.net/DTD/sodipodi-0.dtd"
   xmlns:inkscape="http://www.inkscape.org/namespaces/inkscape"
   height="329.52194pt"
   id="svg548"
   sodipodi:docname="papua_newguinea.svg"
   sodipodi:version="0.32"
   width="494.28751pt"
   inkscape:version="1.0.2 (e86c870879, 2021-01-15)"
   version="1.1">
  <metadata
     id="metadata3">
    <rdf:RDF>
      <cc:Work
         rdf:about="">
        <dc:title>Papaua New Guinea</dc:title>
        <dc:description />
        <dc:subject>
          <rdf:Bag>
            <rdf:li>melanesia</rdf:li>
            <rdf:li />
            <rdf:li>flags</rdf:li>
            <rdf:li>oceania</rdf:li>
            <rdf:li>signs_and_symbols</rdf:li>
            <rdf:li>sign</rdf:li>
          </rdf:Bag>
        </dc:subject>
        <dc:publisher>
          <cc:Agent
             rdf:about="http://www.openclipart.org">
            <dc:title>Tobias Jakobs</dc:title>
          </cc:Agent>
        </dc:publisher>
        <dc:creator>
          <cc:Agent>
            <dc:title>Tobias Jakobs</dc:title>
          </cc:Agent>
        </dc:creator>
        <dc:rights>
          <cc:Agent>
            <dc:title>Tobias Jakobs</dc:title>
          </cc:Agent>
        </dc:rights>
        <dc:date />
        <dc:format>image/svg+xml</dc:format>
        <dc:type
           rdf:resource="http://purl.org/dc/dcmitype/StillImage" />
        <cc:license
           rdf:resource="http://web.resource.org/cc/PublicDomain" />
        <dc:language>en</dc:language>
      </cc:Work>
      <cc:License
         rdf:about="http://web.resource.org/cc/PublicDomain">
        <cc:permits
           rdf:resource="http://web.resource.org/cc/Reproduction" />
        <cc:permits
           rdf:resource="http://web.resource.org/cc/Distribution" />
        <cc:permits
           rdf:resource="http://web.resource.org/cc/DerivativeWorks" />
      </cc:License>
    </rdf:RDF>
  </metadata>
  <defs
     id="defs550" />
  <sodipodi:namedview
     id="base"
     inkscape:zoom="0.85350937"
     inkscape:cx="329.52499"
     inkscape:cy="219.68134"
     inkscape:window-width="1043"
     inkscape:window-height="767"
     inkscape:window-x="424"
     inkscape:window-y="82"
     inkscape:current-layer="svg548"
     inkscape:document-rotation="0"
     showgrid="false"
     inkscape:window-maximized="0" />
  <rect
     style="fill:#ff0000;fill-opacity:1;fill-rule:nonzero;stroke:none;stroke-width:8.38291;stroke-linecap:butt;stroke-linejoin:round;stroke-miterlimit:4;stroke-dasharray:none;stroke-opacity:1"
     id="rect2055"
     width="659.04999"
     height="439.36249"
     x="0"
     y="9.6827745e-05" />
  <path
     style="font-size:12px;fill-rule:evenodd;stroke:none;stroke-width:0.999976pt"
     sodipodi:nodetypes="cccc"
     id="path572"
     d="M 0.514263,0 0,439.36259 h 659.05 z" />
  <path
     style="font-size:12px;fill:#ffcc00;fill-opacity:1;stroke:#ffcc00;stroke-width:2.28597;stroke-opacity:1"
     sodipodi:nodetypes="ccccccccccccccccccccccccccccccccccccccccccccccccccccccccccccccc"
     id="selection_to_path"
     d="m 406.90284,119.44252 c 0,0 -8.77813,-0.4572 -8.77813,-0.4572 -2.69745,-6.35499 -10.31659,-8.73995 -15.00283,-6.06536 -4.2519,0.36575 -26.5104,-0.33535 -26.5104,-0.33535 0,0 16.27611,7.13223 16.27611,7.13223 4.02331,10.88122 18.01345,13.4415 18.01345,13.4415 -1.24128,20.05894 -20.30171,-2.58863 -36.3035,8.84123 -11.42986,6.85791 -11.56473,15.04809 -17.74143,28.27929 -1.90878,3.67858 -9.96226,13.17085 -9.96226,13.17085 0,0 13.44151,-1.14299 13.44151,-1.14299 0,0 -4.29762,5.71493 -4.29762,5.71493 0,0 16.00179,-2.28597 16.00179,-2.28597 0,0 -2.14881,1.79403 -3.42895,3.15464 2.37055,0.46359 18.28777,-3.72614 18.28777,-3.72614 0,0 -1.14299,5.14344 -1.14299,5.14344 8.16092,-3.26894 18.28777,-6.5836 18.28777,-6.5836 0,0 3.58897,2.99463 6.85791,4.29763 0,0 2.28597,-9.14389 2.28597,-9.14389 0,0 9.14389,2.28598 9.14389,2.28598 0,0 2.28597,-9.14389 2.28597,-9.14389 13.71582,18.28777 18.28776,36.57554 43.43345,41.14748 0,0 -2.28598,-9.14388 -2.28598,-9.14388 6.99508,2.99462 19.97939,9.34962 19.97939,9.34962 0,0 1.96594,-4.18333 1.96594,-4.18333 10.90408,7.81802 19.95652,7.68086 26.06007,8.54953 0,0 -4.54909,-11.38413 -4.57195,-11.42985 0.29718,0.1143 4.54909,2.30883 4.57195,2.28597 0,0 -6.85792,-18.28777 -6.85792,-18.28777 0,0 6.85792,2.28597 6.85792,2.28597 0,0 -9.14389,-13.71583 -9.14389,-13.71583 0,0 3.42896,-2.28597 3.42896,-2.28597 0,0 -1.14299,-6.85791 -1.14299,-6.85791 13.71583,4.57194 32.0036,11.42986 34.28957,27.43165 2.28597,25.14568 -25.14568,32.0036 -43.43345,29.71763 13.71583,11.42985 38.86151,6.85791 50.29136,-4.57195 4.57194,-4.57194 6.85791,-11.42985 9.14388,-18.28776 2.28598,6.85791 6.85792,16.00179 6.85792,25.14568 -2.28597,20.57374 -29.71762,27.43165 -48.00539,29.71762 20.57374,11.42985 57.14927,-2.28597 59.43524,-32.00359 0,-25.14569 -16.00179,-36.57554 -22.85971,-48.0054 -1.02868,-4.16046 -2.28597,-12.29852 -2.28597,-12.29852 0.88696,0.26152 6.85791,3.1775 6.85791,3.1775 0,0 -4.04616,-7.56656 -4.57194,-9.16674 0,0 -7.13223,-19.43076 -9.71537,-23.72838 0.42519,-0.24049 5.14343,0.80009 5.14343,0.80009 0,0 -18.7221,-23.47692 -18.7221,-23.47692 0,0 4.51708,-0.41056 5.30345,-0.54864 0,0 -21.76244,-17.167643 -27.72883,-19.339315 0,0 6.85792,-2.285971 6.85792,-2.285971 -13.71583,-6.857913 -29.71763,-2.285971 -43.43345,6.857913 0,0 2.28597,-6.857913 2.28597,-6.857913 0,0 -4.18333,0.388615 -4.18333,0.388615 0,0 0,-7.840881 0,-7.840881 0,0 4.18333,-6.26356 4.18333,-6.26356 0,0 -6.85792,-2.285971 -6.85792,-2.285971 0,0 4.57195,-11.429855 4.57195,-11.429855 0,0 -6.85792,2.285971 -6.85792,2.285971 0,0 2.28597,-11.429855 2.28597,-11.429855 0,0 -5.12057,2.37741 -8.22949,2.034514 0.1143,0.251457 3.63469,-7.818021 3.63469,-7.818021 -2.18081,-3.406097 0.0229,-10.21829 0.0229,-10.21829 -16.00179,2.285971 -18.28777,4.571942 -27.43165,18.287768 -13.71583,25.145681 -9.14388,36.575536 -6.85791,61.721221 z" />
  <path
     style="font-size:12px;fill:#ff0000;fill-opacity:1;fill-rule:evenodd;stroke:#ff0000;stroke-width:2.28597pt;stroke-linecap:butt;stroke-linejoin:miter;stroke-opacity:1"
     sodipodi:nodetypes="ccc"
     id="path566"
     d="m 493.27139,157.01931 c 1.191,1.96456 14.16617,8.21509 23.92955,13.75149 -2.61972,-10.53673 -21.66872,-12.85859 -23.92955,-13.75149 z" />
  <polygon
     d="m 178.9777,392.383 -16.74254,-12.21262 -17.31103,12.28358 6.44117,-19.69701 -17.03178,-12.66793 20.7234,0.0392 6.78481,-20.11279 6.36659,19.72124 21.22503,0.23754 -16.78863,12.14919 z"
     inkscape:randomized="0"
     inkscape:rounded="0"
     inkscape:flatsided="false"
     style="font-size:12px;fill:#ffffff;fill-opacity:1;fill-rule:evenodd;stroke-width:2.28597pt"
     sodipodi:type="star"
     sodipodi:sides="5"
     sodipodi:r2="11.192213"
     sodipodi:r1="28.967756"
     sodipodi:cy="368.98312"
     sodipodi:cx="161.90208"
     sodipodi:arg2="1.5410323"
     sodipodi:arg1="0.94039422"
     points="78.294,180.397 71.9338,176.34 63.3972,180.428 65.2905,173.126 58.7643,166.27 66.2946,165.814 70.7978,157.489 73.5585,164.51 82.8678,166.22 77.0437,171.015 78.294,180.397 "
     id="polygon567" />
  <polygon
     d="m 216.29107,310.79951 -6.74479,-4.69688 -6.48281,5.19519 2.38275,-7.86609 -6.94422,-4.56011 8.2174,-0.16463 2.19104,-8.0135 2.69589,7.76435 8.29836,-0.39251 -6.55125,4.96326 z"
     inkscape:randomized="0"
     inkscape:rounded="0"
     inkscape:flatsided="false"
     style="font-size:12px;fill:#ffffff;fill-opacity:1;fill-rule:evenodd;stroke-width:2.28597pt"
     sodipodi:type="star"
     sodipodi:sides="5"
     sodipodi:r2="4.1624689"
     sodipodi:r1="11.260044"
     sodipodi:cy="301.94556"
     sodipodi:cx="209.33434"
     sodipodi:arg2="1.5198562"
     sodipodi:arg1="0.90482324"
     points="94.6167,144.708 91.6662,143.296 88.8303,144.926 89.2615,141.684 86.8349,139.491 90.0519,138.899 91.3881,135.913 92.9451,138.79 96.1975,139.138 93.9428,141.508 94.6167,144.708 "
     id="polygon568" />
  <polygon
     d="m 249.17744,263.99975 -14.80043,-10.15197 -14.33336,11.04041 5.08152,-17.21318 -14.9293,-10.22015 17.94098,-0.48636 5.10653,-17.35681 6.00662,16.91259 18.08531,-0.50695 -14.22868,10.93892 z"
     inkscape:randomized="0"
     inkscape:rounded="0"
     inkscape:flatsided="false"
     style="font-size:12px;fill:#ffffff;fill-opacity:1;fill-rule:evenodd;stroke-width:2.28597pt"
     sodipodi:type="star"
     sodipodi:sides="5"
     sodipodi:r2="9.4609623"
     sodipodi:r1="24.794195"
     sodipodi:cy="244.39436"
     sodipodi:cx="233.99913"
     sodipodi:arg2="1.5308452"
     sodipodi:arg1="0.91199213"
     points="109.003,124.236 102.528,121.08 96.2583,124.625 97.2589,117.492 91.9504,112.624 99.0432,111.371 102.033,104.818 105.416,111.177 112.572,111.995 107.57,117.177 109.003,124.236 "
     id="polygon569" />
  <polygon
     d="m 181.5074,198.85938 -17.42202,-12.40256 -17.0685,13.075 6.41183,-20.40193 -17.70951,-12.19271 21.38475,-0.20653 6.12342,-20.6105 6.80467,20.27428 21.49399,-0.54528 -17.17923,12.73673 z"
     inkscape:randomized="0"
     inkscape:rounded="0"
     inkscape:flatsided="false"
     style="font-size:12px;fill:#ffffff;fill-opacity:1;fill-rule:evenodd;stroke-width:2.28597pt"
     sodipodi:type="star"
     sodipodi:sides="5"
     sodipodi:r2="11.001009"
     sodipodi:r1="29.344963"
     sodipodi:cy="175.45953"
     sodipodi:cx="163.79938"
     sodipodi:arg2="1.5447952"
     sodipodi:arg1="0.92298394"
     points="79.4006,95.7402 71.7793,91.9212 64.3127,96.0343 65.5897,87.6059 59.3705,81.7758 67.781,80.3858 71.404,72.6694 75.3249,80.2387 83.7832,81.2998 77.796,87.368 79.4006,95.7402 "
     id="polygon570" />
  <polygon
     d="m 118.89683,266.52937 -17.57069,-13.3695 -17.521365,13.60492 7.2855,-20.84212 -18.353439,-12.45966 22.073378,0.48835 6.178316,-21.30541 6.3566,21.14394 22.17184,-0.7078 -18.14478,12.57932 z"
     inkscape:randomized="0"
     inkscape:rounded="0"
     inkscape:flatsided="false"
     style="font-size:12px;fill:#ffffff;fill-opacity:1;fill-rule:evenodd;stroke-width:2.28597pt"
     sodipodi:type="star"
     sodipodi:sides="5"
     sodipodi:r2="10.663719"
     sodipodi:r1="29.851757"
     sodipodi:cy="242.49704"
     sodipodi:cx="101.18879"
     sodipodi:arg2="1.5579158"
     sodipodi:arg1="0.93576926"
     points="50.9049,125.343 43.2186,120.779 35.5538,125.445 37.5186,116.725 30.7122,110.878 39.6128,110.051 43.0709,101.771 46.607,109.981 55.5507,110.711 48.8355,116.611 50.9049,125.343 "
     id="polygon571" />
</svg>
